X: 5
T: Ariel
T: McCuskers' Delight
M: 4/4
L: 1/8
R: hornpipe
K: Amaj
|: dB |\
AcEA c2 BA | BEGB d2 cB | cAce aecA | Bcdc BAGE |
AcEA c2 BA | BEGB d2 cB | ceAc BdGB | A2 A2 A2 :|
|: eg |\
aece a2 ga | fdAd f2 ed | cAce aecA | Bcdc BAGE |
aece aega | fdAd fAed | c2 Ac B2 GB | A2 a2 A2 :|
